overrides/.icons/nation/kamikaze.svg

<?xml version="1.0" encoding="UTF-8" standalone="no"?>
<!-- Created with Inkscape (http://www.inkscape.org/) -->

<svg
   version="1.1"
   id="svg1"
   width="24"
   height="24"
   viewBox="0 0 24 24"
   sodipodi:docname="kamikaze.svg"
   inkscape:version="1.3.2 (091e20e, 2023-11-25, custom)"
   xmlns:inkscape="http://www.inkscape.org/namespaces/inkscape"
   xmlns:sodipodi="http://sodipodi.sourceforge.net/DTD/sodipodi-0.dtd"
   xmlns="http://www.w3.org/2000/svg"
   xmlns:svg="http://www.w3.org/2000/svg">
  <defs
     id="defs1" />
  <sodipodi:namedview
     id="namedview1"
     pagecolor="#ffffff"
     bordercolor="#111111"
     borderopacity="1"
     inkscape:showpageshadow="0"
     inkscape:pageopacity="0"
     inkscape:pagecheckerboard="1"
     inkscape:deskcolor="#d1d1d1"
     inkscape:zoom="3.9890046"
     inkscape:cx="-9.0248079"
     inkscape:cy="32.965618"
     inkscape:window-width="1366"
     inkscape:window-height="697"
     inkscape:window-x="-8"
     inkscape:window-y="-8"
     inkscape:window-maximized="1"
     inkscape:current-layer="g1" />
  <g
     inkscape:groupmode="layer"
     inkscape:label="Image"
     id="g1">
    <path
       style="stroke-width:1"
       d="M 11.371408,22.49215 C 10.293097,22.396907 9.7191005,22.29067 8.8856304,22.031901 6.5814262,21.316529 4.5905706,19.826234 3.2460848,17.810308 2.3228492,16.426001 1.751917,14.865533 1.5524744,13.181345 c -0.069968,-0.590793 -0.069968,-1.777657 0,-2.368449 C 1.6604048,9.9015118 1.8657559,9.0713134 2.1993407,8.1978358 2.7602311,6.7291753 3.7616631,5.2735415 4.9352758,4.2210204 6.6158472,2.7138427 8.6007369,1.812947 10.81551,1.5521071 c 0.590232,-0.069476 1.778727,-0.069476 2.368969,0 1.36875,0.1611974 2.730179,0.5946198 3.879442,1.2350479 3.004505,1.6742633 4.980269,4.6196867 5.383603,8.025741 0.06997,0.590792 0.06997,1.777656 0,2.368449 -0.168277,1.421048 -0.60646,2.771104 -1.289151,3.971948 -0.966075,1.699296 -2.378238,3.097431 -4.094452,4.053783 -1.147058,0.639197 -2.524809,1.078622 -3.863893,1.232357 -0.36852,0.04228 -1.558055,0.07663 -1.82862,0.05268 z m 1.87148,-1.524451 c 2.050772,-0.310838 3.774231,-1.178961 5.206392,-2.622523 2.237491,-2.255322 3.121256,-5.5641 2.309673,-8.6473869 C 19.84869,6.2395804 16.964524,3.6234993 13.440288,3.0593992 12.417264,2.8956443 11.511582,2.899662 10.485906,3.0724737 6.991155,3.6613484 4.1447982,6.2642978 3.2410448,9.69777 c -0.4225482,1.605293 -0.3902465,3.330403 0.092305,4.927403 0.5422482,1.794778 1.6713792,3.420236 3.1665111,4.558409 1.3737521,1.045774 2.9315308,1.656722 4.6881111,1.838629 0.439416,0.04552 1.597756,0.01479 2.054964,-0.05449 z M 11.299979,19.835271 C 10.741694,19.754725 10.573304,19.725408 10.32853,19.666277 9.3656326,19.433666 8.4634257,18.959675 7.8339416,18.355684 6.9354478,17.493591 6.5856453,16.679712 6.6373149,15.571543 c 0.028064,-0.601071 0.1396212,-0.946532 0.4567305,-1.413881 0.1698135,-0.250266 0.2467975,-0.334687 0.4309769,-0.472579 0.275367,-0.206166 0.4178901,-0.276462 0.8748784,-0.431523 0.3219011,-0.109224 0.3910006,-0.122499 0.700025,-0.134514 0.6812395,-0.02653 1.1850853,0.166388 1.6584453,0.634883 0.273381,0.270574 0.432828,0.527062 0.5594,0.899836 0.08553,0.251793 0.09221,0.299205 0.09326,0.657015 9.56e-4,0.421302 -0.03532,0.608534 -0.181401,0.930661 -0.16526,0.364386 -0.514958,0.769866 -0.836734,0.97021 -0.07465,0.04648 -0.135689,0.09143 -0.135718,0.100024 -2e-4,0.0586 0.615681,0.448682 1.060795,0.671893 0.968595,0.485739 1.895296,0.704598 2.996402,0.70768 0.572669,0.0019 0.912602,-0.03197 1.438241,-0.141996 0.327132,-0.06852 1.015549,-0.280442 1.200168,-0.36952 l 0.0902,-0.04352 -0.08572,0.07367 c -0.04715,0.04046 -0.214295,0.161045 -0.371441,0.267864 -0.963766,0.655049 -1.990141,1.060566 -3.240126,1.28014 -0.366068,0.06432 -0.511522,0.07425 -1.188561,0.0815 -0.424304,0.0048 -0.810026,0.0029 -0.857172,-0.0038 z M 7.5427386,18.644657 C 6.4063055,17.863436 5.406544,16.617289 4.8128459,15.242001 3.9342257,13.20673 4.0005951,11.062942 4.9896657,9.530503 5.3481927,8.9750111 5.7106143,8.6386258 6.2514687,8.3593481 6.9902482,7.9778607 7.7243121,7.8792393 8.4141903,8.0687806 c 0.3201829,0.08799 0.3842233,0.1166583 0.6285868,0.2815871 0.2142188,0.1445824 0.378181,0.3096448 0.6084266,0.6125042 0.4038113,0.5311563 0.5559463,0.940329 0.5546383,1.4916791 -0.0029,1.024759 -0.6751494,1.88376 -1.6916536,2.160079 C 8.228684,12.69222 7.7085812,12.68506 7.4141615,12.59955 7.1233117,12.515 6.8576619,12.38136 6.6138807,12.196886 6.5081745,12.116916 6.4172923,12.055863 6.4118992,12.061246 c -0.00573,0.0057 -0.055745,0.16991 -0.1119682,0.365617 -0.4200187,1.462781 -0.3377466,2.97871 0.2399726,4.421718 0.2281648,0.569922 0.7469025,1.428283 1.0686318,1.768295 0.048109,0.05087 0.0819,0.09775 0.075122,0.10429 -0.00668,0.0067 -0.070159,-0.02787 -0.1409098,-0.07654 z m 7.0144714,-0.21923 c -0.82212,-0.09534 -1.583829,-0.463151 -2.005097,-0.968301 -0.248297,-0.297725 -0.340773,-0.4548 -0.439578,-0.746608 -0.08629,-0.254713 -0.09269,-0.302086 -0.105286,-0.771287 -0.01174,-0.437478 -0.0057,-0.530975 0.04601,-0.748698 0.224537,-0.940233 0.959461,-1.599519 1.907676,-1.71132 1.041809,-0.122843 2.019912,0.498108 2.366641,1.502463 0.0399,0.11559 0.07255,0.236915 0.07255,0.26963 0,0.03273 0.0067,0.05945 0.01546,0.05945 0.02702,0 0.320088,-0.224003 0.578235,-0.441974 1.051555,-0.887878 1.837441,-2.17572 2.162043,-3.542992 0.134954,-0.568413 0.171169,-0.901478 0.172047,-1.5822549 l 8.22e-4,-0.6395883 0.119976,0.377565 c 0.458659,1.4434082 0.471946,3.1439732 0.03637,4.6512182 -0.266241,0.921213 -0.686842,1.754256 -1.231266,2.43866 -0.261021,0.32813 -0.77974,0.822248 -1.112713,1.059936 -0.312509,0.223086 -0.911123,0.527091 -1.241825,0.630665 -0.482111,0.150996 -0.953771,0.208418 -1.342061,0.163412 z m -2.98258,-4.95946 c -0.397024,-0.106743 -0.750682,-0.395688 -0.928686,-0.758757 -0.481062,-0.981155 0.222915,-2.109823 1.315945,-2.109823 0.960558,0 1.659103,0.934316 1.394007,1.864501 -0.09974,0.349965 -0.409461,0.73109 -0.723363,0.890121 -0.304643,0.154345 -0.735219,0.200726 -1.057903,0.113958 z m 4.496908,-0.145985 c -1.050505,-0.241105 -1.616331,-0.619042 -1.955623,-1.306223 -0.743524,-1.505908 0.39079,-3.2761015 2.058007,-3.2116932 l 0.257402,0.00993 -0.01785,-0.071384 C 16.368611,8.5614961 16.179277,8.0937747 16.014476,7.7550703 15.502543,6.7029119 14.684613,5.774827 13.676366,5.1020659 13.135597,4.74124 12.293613,4.3609837 11.721353,4.2191499 c -0.129694,-0.032161 -0.228804,-0.065468 -0.220232,-0.074057 0.0086,-0.00859 0.198269,-0.012597 0.421536,-0.00859 2.331438,0.03846 4.711241,1.2249224 6.066504,3.0245953 0.722027,0.9587764 1.109763,2.0932466 1.081795,3.1651888 -0.01508,0.576764 -0.124406,1.000423 -0.37527,1.453849 -0.372511,0.673305 -0.868406,1.154406 -1.409795,1.367749 -0.438251,0.172697 -0.526337,0.19228 -0.849125,0.188806 -0.169432,-0.0019 -0.333766,-0.0095 -0.365199,-0.01641 z M 4.3547885,9.7940055 C 5.0704011,7.5291593 7.0258527,5.5105897 9.2021955,4.7901403 10.387693,4.3976971 11.651146,4.4037667 12.666448,4.8067453 c 0.713312,0.2831427 1.329614,0.8582368 1.709809,1.5954826 0.202984,0.393617 0.260142,0.6403994 0.263712,1.1385452 0.0029,0.3821554 -0.0029,0.4323918 -0.07665,0.649103 -0.08419,0.248653 -0.219507,0.4951777 -0.450068,0.8201969 -0.264183,0.3724121 -0.543015,0.610491 -0.924088,0.7890287 -0.357629,0.1675532 -0.56049,0.2058513 -1.017774,0.1921274 C 11.832281,9.9810177 11.75565,9.9690885 11.53727,9.8925314 10.932584,9.6804487 10.421311,9.1940223 10.184689,8.605682 9.9746798,8.0835155 9.9845117,7.4382108 10.210652,6.9012235 L 10.257425,6.790148 9.7786545,6.8058946 C 9.2563469,6.8229772 8.8203967,6.8890175 8.3065081,7.028704 6.7473929,7.4525449 5.3469136,8.4651079 4.4572111,9.811823 4.3741657,9.9375094 4.2960649,10.05162 4.2836463,10.065391 c -0.012409,0.01374 0.019568,-0.1083463 0.071113,-0.271376 z"
       id="path1" />
  </g>
</svg>

<?xml version="1.0" encoding="UTF-8"?>
<!-- Created with Inkscape (http://www.inkscape.org/) -->
<svg id="svg1" width="24" height="24" version="1.1" viewBox="0 0 24 24" xmlns="http://www.w3.org/2000/svg">
 <g id="g1">
  <path id="path1" d="m11.371 22.492c-1.0783-0.095243-1.6523-0.20148-2.4858-0.46025-2.3042-0.71537-4.2951-2.2057-5.6395-4.2216-0.92324-1.3843-1.4942-2.9448-1.6936-4.629-0.069968-0.59079-0.069968-1.7777 0-2.3684 0.10793-0.91138 0.31328-1.7416 0.64687-2.6151 0.56089-1.4687 1.5623-2.9243 2.7359-3.9768 1.6806-1.5072 3.6655-2.4081 5.8802-2.6689 0.59023-0.069476 1.7787-0.069476 2.369 0 1.3688 0.1612 2.7302 0.59462 3.8794 1.235 3.0045 1.6743 4.9803 4.6197 5.3836 8.0257 0.06997 0.59079 0.06997 1.7777 0 2.3684-0.16828 1.421-0.60646 2.7711-1.2892 3.9719-0.96608 1.6993-2.3782 3.0974-4.0945 4.0538-1.1471 0.6392-2.5248 1.0786-3.8639 1.2324-0.36852 0.04228-1.5581 0.07663-1.8286 0.05268zm1.8715-1.5245c2.0508-0.31084 3.7742-1.179 5.2064-2.6225 2.2375-2.2553 3.1213-5.5641 2.3097-8.6474-0.91026-3.4582-3.7944-6.0743-7.3187-6.6384-1.023-0.16375-1.9287-0.15974-2.9544 0.013074-3.4948 0.58887-6.3411 3.1918-7.2449 6.6253-0.42255 1.6053-0.39025 3.3304 0.092305 4.9274 0.54225 1.7948 1.6714 3.4202 3.1665 4.5584 1.3738 1.0458 2.9315 1.6567 4.6881 1.8386 0.43942 0.04552 1.5978 0.01479 2.055-0.05449zm-1.9429-1.1324c-0.55828-0.080546-0.72668-0.10986-0.97145-0.16899-0.9629-0.23261-1.8651-0.7066-2.4946-1.3106-0.89849-0.86209-1.2483-1.676-1.1966-2.7841 0.028064-0.60107 0.13962-0.94653 0.45673-1.4139 0.16981-0.25027 0.2468-0.33469 0.43098-0.47258 0.27537-0.20617 0.41789-0.27646 0.87488-0.43152 0.3219-0.10922 0.391-0.1225 0.70002-0.13451 0.68124-0.02653 1.1851 0.16639 1.6584 0.63488 0.27338 0.27057 0.43283 0.52706 0.5594 0.89984 0.08553 0.25179 0.09221 0.2992 0.09326 0.65702 9.56e-4 0.4213-0.03532 0.60853-0.1814 0.93066-0.16526 0.36439-0.51496 0.76987-0.83673 0.97021-0.07465 0.04648-0.13569 0.09143-0.13572 0.10002-2e-4 0.0586 0.61568 0.44868 1.0608 0.67189 0.9686 0.48574 1.8953 0.7046 2.9964 0.70768 0.57267 0.0019 0.9126-0.03197 1.4382-0.142 0.32713-0.06852 1.0155-0.28044 1.2002-0.36952l0.0902-0.04352-0.08572 0.07367c-0.04715 0.04046-0.2143 0.16104-0.37144 0.26786-0.96377 0.65505-1.9901 1.0606-3.2401 1.2801-0.36607 0.06432-0.51152 0.07425-1.1886 0.0815-0.4243 0.0048-0.81003 0.0029-0.85717-0.0038zm-3.7572-1.1906c-1.1364-0.78122-2.1362-2.0274-2.7299-3.4027-0.87862-2.0353-0.81225-4.1791 0.17682-5.7115 0.35853-0.55549 0.72095-0.89188 1.2618-1.1712 0.73878-0.38149 1.4728-0.48011 2.1627-0.29057 0.32018 0.08799 0.38422 0.11666 0.62859 0.28159 0.21422 0.14458 0.37818 0.30964 0.60843 0.6125 0.40381 0.53116 0.55595 0.94033 0.55464 1.4917-0.0029 1.0248-0.67515 1.8838-1.6917 2.1601-0.2855 0.07759-0.80561 0.07043-1.1-0.01508-0.29085-0.08455-0.5565-0.21819-0.80028-0.40266-0.10571-0.07997-0.19659-0.14102-0.20198-0.13564-0.00573 0.0057-0.055745 0.16991-0.11197 0.36562-0.42002 1.4628-0.33775 2.9787 0.23997 4.4217 0.22816 0.56992 0.7469 1.4283 1.0686 1.7683 0.048109 0.05087 0.0819 0.09775 0.075122 0.10429-0.00668 0.0067-0.070159-0.02787-0.14091-0.07654zm7.0145-0.21923c-0.82212-0.09534-1.5838-0.46315-2.0051-0.9683-0.2483-0.29772-0.34077-0.4548-0.43958-0.74661-0.08629-0.25471-0.09269-0.30209-0.10529-0.77129-0.01174-0.43748-0.0057-0.53098 0.04601-0.7487 0.22454-0.94023 0.95946-1.5995 1.9077-1.7113 1.0418-0.12284 2.0199 0.49811 2.3666 1.5025 0.0399 0.11559 0.07255 0.23692 0.07255 0.26963 0 0.03273 0.0067 0.05945 0.01546 0.05945 0.02702 0 0.32009-0.224 0.57824-0.44197 1.0516-0.88788 1.8374-2.1757 2.162-3.543 0.13495-0.56841 0.17117-0.90148 0.17205-1.5823l8.22e-4 -0.63959 0.11998 0.37756c0.45866 1.4434 0.47195 3.144 0.03637 4.6512-0.26624 0.92121-0.68684 1.7543-1.2313 2.4387-0.26102 0.32813-0.77974 0.82225-1.1127 1.0599-0.31251 0.22309-0.91112 0.52709-1.2418 0.63066-0.48211 0.151-0.95377 0.20842-1.3421 0.16341zm-2.9826-4.9595c-0.39702-0.10674-0.75068-0.39569-0.92869-0.75876-0.48106-0.98116 0.22292-2.1098 1.3159-2.1098 0.96056 0 1.6591 0.93432 1.394 1.8645-0.09974 0.34996-0.40946 0.73109-0.72336 0.89012-0.30464 0.15434-0.73522 0.20073-1.0579 0.11396zm4.4969-0.14598c-1.0505-0.2411-1.6163-0.61904-1.9556-1.3062-0.74352-1.5059 0.39079-3.2761 2.058-3.2117l0.2574 0.00993-0.01785-0.071384c-0.044863-0.17912-0.2342-0.64684-0.399-0.98554-0.51193-1.0522-1.3299-1.9802-2.3381-2.653-0.54077-0.36083-1.3828-0.74108-1.955-0.88292-0.12969-0.032161-0.2288-0.065468-0.22023-0.074057 0.0086-0.00859 0.19827-0.012597 0.42154-0.00859 2.3314 0.03846 4.7112 1.2249 6.0665 3.0246 0.72203 0.95878 1.1098 2.0932 1.0818 3.1652-0.01508 0.57676-0.12441 1.0004-0.37527 1.4538-0.37251 0.6733-0.86841 1.1544-1.4098 1.3677-0.43825 0.1727-0.52634 0.19228-0.84912 0.18881-0.16943-0.0019-0.33377-0.0095-0.3652-0.01641zm-11.717-3.526c0.71561-2.2648 2.6711-4.2834 4.8474-5.0039 1.1855-0.39244 2.449-0.38637 3.4643 0.016605 0.71331 0.28314 1.3296 0.85824 1.7098 1.5955 0.20298 0.39362 0.26014 0.6404 0.26371 1.1385 0.0029 0.38216-0.0029 0.43239-0.07665 0.6491-0.08419 0.24865-0.21951 0.49518-0.45007 0.8202-0.26418 0.37241-0.54302 0.61049-0.92409 0.78903-0.35763 0.16755-0.56049 0.20585-1.0178 0.19213-0.33911-0.010211-0.41574-0.022141-0.63412-0.098698-0.60469-0.21208-1.116-0.69851-1.3526-1.2868-0.21001-0.52217-0.20018-1.1675 0.025963-1.7045l0.046773-0.11108-0.47877 0.015747c-0.52231 0.017083-0.95826 0.083123-1.4721 0.22281-1.5591 0.42384-2.9596 1.4364-3.8493 2.7831-0.083045 0.12569-0.16115 0.2398-0.17356 0.25357-0.012409 0.01374 0.019568-0.10835 0.071113-0.27138z"/>
 </g>
</svg>
